X: 142
T: Tripping at the Truck Stop (polka)
N: 200100
C: BB
R: polka
Q: 300
M: 2/4
L: 1/8
K: D
A|"D"dA FA|"Bm"BA FA|"D"dA FD|"G"GF "A"E2|
"D"dA FA|"G"B>c de|"D"(3fga "G"gf|"A"ec "D"d :|
e|"D"fa fa | "Em"b>a ge | "D"fa af | "G"gf "A"e2 |
"D"fa fa | "Em"b>a ge |"D"(3fga "G"gf |"A"ec "D"d :|
